dreamcast/_inc/system.svg

<svg xmlns="http://www.w3.org/2000/svg"><g fill="#fff"><path d="m133.461 21.019c0-2.616-.498-6.007-1.657-7.432 7.58 0 23.95.048 30.968.048 16.149 0 40.51 8.962 40.51 39.177 0 22.426-17.199 39.129-40.51 39.129-5.113 0-24.634-.06-31.562-.06 1.42-2.622 2.251-6.178 2.251-8.986zm11.611 63.244c7.454.969 14.334 1.266 20.557.378 6.025-.861 26.26-5.221 26.134-32.087-.117-25.465-15.843-31.286-27.962-31.997-6.322-.375-12.428-.135-18.729.957z"/><path d="m209.934 37.645 11.602-1.813v10.217c2.974-7.354 12.236-13.265 25.39-8.143l-3.081 8.077c-12.044-5.716-22.309-.702-22.309 12.671v27.595c0 1.314.285 3.964 1.072 5.665h-12.053c1.218-1.5 1.782-4.351 1.782-5.665v-39.804c-.003-2.889-.591-7.357-2.403-8.8z"/><path d="m576.725 43.181v35.246c0 11.066 7.628 14.024 13.28 14.024 2.386.117 5.773-.441 8.138-.966l1.452-6.829c-2.754 1.053-5.956 1.302-7.879 1.302-3.541 0-6.103-2.352-6.103-6.031 0-3.3-.084-35.654 0-36.686h-.039c.471 0 7.822-.027 8.563 0 2.409.084 4.261.231 5.854.873l.009-6.433s-14.111-.018-14.387-.018l.057-16.497-10.691 2.953c1.473 1.38 1.953 5.416 1.953 8.077 0 0-.009 4.927-.009 5.521-.48 0-5.91.03-6.808.03v5.434c.952-.003 6.61 0 6.61 0z"/><path d="m530.515 80.452c4.597 3.283 11.807 6.199 17.097 6.199 7.336 0 12.593-3.57 12.593-10.288 0-12.404-28.28-10.349-28.28-26.086 0-10.643 9.515-14.646 18.582-14.646 2.914 0 9.569.634 13.8 2.269l-.037 7.27c-3.756-3.214-9.493-3.988-13.271-3.988-5.998 0-10.504 2.977-10.504 8.816 0 8.569 28.255 8.074 28.255 25.669 0 11.377-9.856 16.682-20.706 16.682-5.287 0-10.802-.936-15.389-2.25z"/><path d="m359.81 43.292c0-.642.024-6.406.024-7.144l-11.747 1.815c1.416 1.485 2.502 6.112 2.502 9.418v38.484c0 1.314-.561 4.501-1.782 6.001h12.806c-1.215-1.5-1.779-4.687-1.779-6.001v-28.954c0-10.595 6.553-14.303 13.079-14.303 5.905 0 11.24 2.553 11.24 14.303v28.957c0 1.314-.565 4.501-1.78 5.998h12.419c-1.218-1.5-1.779-4.687-1.779-5.998v-28.957c0-11.747 7.258-14.303 13.175-14.303 5.902 0 12.074 3.705 12.074 14.303v28.957c0 1.314-.558 4.501-1.782 5.998h11.962c-1.227-1.5-1.782-4.687-1.782-5.998v-34.454c0-5.875-5.995-15.284-19.986-15.284-8.14 0-12.842 3.621-16.409 6.739-3.037-3.544-7.979-6.865-15.918-6.865-7.735-.003-12.305 4.53-14.537 7.288z"/><path d="m332.115 61.345c-1.677 1.579-5.187 2.803-8.809 3.28-9.523 1.248-17.772 2.829-17.772 12.104 0 5.5 6.001 9.832 10.751 9.832 12.581 0 15.834-9.079 15.834-16.229v-8.987zm-29.722-22.692c4.801-1.923 12.551-2.809 17.409-2.809 12.409 0 20.655 6.202 20.655 20.593v23.877c0 4.423.066 8.612 1.644 11.552h-9.974l-.36-6.28c-3.774 4.876-8.29 7.057-15.95 7.057-15.113 0-18.414-10.327-18.414-15.287 0-17.712 16.857-17.916 24.178-18.96 4.05-.573 9.259-1.719 10.045-5.515 1.291-6.28-3.198-10.991-12.371-10.991-6.736 0-12.25 2.05-16.859 4.804zm214.407 22.692c-1.677 1.579-5.188 2.803-8.812 3.28-9.521 1.248-17.766 2.829-17.766 12.104 0 5.5 5.995 9.832 10.745 9.832 12.578 0 15.833-9.079 15.833-16.229zm-29.722-22.692c4.803-1.923 12.556-2.809 17.414-2.809 12.401 0 20.649 6.202 20.649 20.593v23.877c0 4.423-.966 8.522 1.639 11.552h-9.974l-.363-6.28c-3.778 4.876-8.284 7.057-15.944 7.057-15.108 0-18.411-10.327-18.411-15.287 0-17.712 16.856-17.916 24.174-18.96 4.051-.573 9.266-1.719 10.043-5.515 1.293-6.28-3.195-10.991-12.374-10.991-6.73 0-12.245 2.05-16.857 4.804v-8.041z"/><path d="m476.459 45.974c-3.742-2.184-9.647-3.916-13.766-3.916-14.465 0-21.097 8.894-21.097 21.706 0 12.692 6.481 22.413 20.632 22.413 4.845 0 11.446-2.178 16.571-5.326l-2.085 9.338c-5.215 1.551-9.608 2.289-15.425 2.289-19.882 0-29.201-14.099-29.201-28.774 0-16.215 12.5-27.619 29.42-27.619 7.393 0 12.791 1.812 14.969 2.43z"/><path d="m253.899 64.442c.009-1.338.189-2.616.339-3.856h38.469c0-13.223-6.616-24.567-22.281-24.567-16.263 0-25.918 12.718-25.918 28.939 0 14.666 10.748 27.775 29.158 27.775 5.818 0 10.685-1.434 15.939-3.273l1.848-9.38c-4.492 3.7-11.753 5.89-18.309 5.89-11.779 0-19.296-8.53-19.245-21.528zm1.558-9.722c1.248-6.433 7.201-12.986 14.327-12.986 10.886 0 14.036 8.495 14.036 12.986-.003 0-28.363.021-28.363 0z"/><path d="m70.697 1.399c4.315.648 8.722 2.154 11.021 2.857 4.629 1.416 12.146 5.814 14.801 7.924 1.257.999 3.898 3.612 4.921 4.927.996 1.281 2.898 4.056 4.11 5.766 1.936 2.824 4.21 7.028 6.139 10.895 2.155 4.324 2.305 5.575 2.956 9.188l1.425 6.37c.135 1.101.246 5.142-2.127 5.706-2.368.568-4.561-.525-5.596-2.124-1.428-2.211-1.23-5.353-2.851-8.947-1.26-2.908-1.809-7.129-3.825-10.166l-1.578-2.673c-2.797-4.303-5.71-7.717-7.445-9.947-1.533-1.872-4.392-4.413-7.099-6.223-2.505-1.521-6.553-3.252-9.475-4.143-.93-.303-4.915-1.477-7.387-1.807-3.364-.375-5.572-.906-8.765-1.131-3.942-.279-5.83-.63-10.945-.03-1.939.525-5.005.732-7.769 1.788-2.229.91-5.328 2.38-8.368 4.165-3.273 1.794-8.236 5.461-11.531 8.593-3.318 3.544-4.977 5.449-7.264 9.941-1.014 2.223-2.973 5.665-3.765 8.095-.54 2.464-1.57 7.063-1.399 9.296.081 3.999-.27 4.827.03 8.098.012 2.943.979 4.984 1.381 7.393.342 1.665 1.941 7.42 2.928 8.761 4.486 9.671 10.514 13.86 17.229 16.884 1.893.966 7.816 2.55 9.526 3.003 2.926.526 6.769.88 10.469.952 3.894.075 9.262-.45 12.515-1.654 3.525-1.296 7.603-3.138 7.558-3.084 1.632-.903 4.132-2.376 4.906-3.022 1.503-.963 2.409-1.335 3.297-2.262 1.287-1.122 2.062-1.77 3.037-3.162.54-.784 1.404-1.984 2.238-3.046.9-1.479 1.419-3.036 2.298-4.96 1.054-2.85.889-2.712 1.09-5.737.192-.876-.021-3.822-.177-4.323-.475-2.719-.31-5.116-.931-7.756-.837-3.571-1.539-6.244-2.61-9.671-1.011-3.859-3.973-7.432-6.196-9.985-1.377-1.585-5.653-5.32-11.582-7.655-1.671-.561-4.401-1.197-6.136-1.515-3.708-.387-4.311-.138-7.858.12-1.221.213-4.054.792-5.098 1.158-3.045 1.071-4.167 1.753-7.282 3.658-1.449.843-2.544 1.488-4.026 2.877-1.183 1.095-2.032 2.956-2.986 4.048-1.314 1.785-2.775 4.168-3.757 6.739-1.062 2.556-1.404 6.154-1.242 8.47 0 1.762.48 4.996.669 5.701.192.708.669 2.902.771 3.343.106.441 1.246 2.763 1.405 3.099.645 1.371 1.875 3.337 3.948 5.347 1.534 1.671 4.492 3.313 6.709 3.949 1.987 1.092 5.338 1.275 7.195 1.278.91-.054 3.241-.198 4.459-.489 2.467-.591 2.92-.606 5.464-1.711 2.28-1.059 3.829-1.44 5.416-2.613 0 0 2.181-1.707 3.174-2.958.522-.657 1.42-3.805 1.261-5.752-.075-2.668.315-4.18-.232-6.373-.546-2.194-1.473-4.735-2.481-6.301-1.02-1.587-3.21-3.133-5.704-4.366-1.401-.69-4.711-1.329-6.115-1.494-2.667-.318-4.896.894-6.253 2.277-1.176 1.344-3.498 4.132-2.574 7.018.837 2.608 1.851 5.389 5.764 5.182 2.688.558 5.794-.249 6.829.225 1.533.87 2.124 2.797 1.566 4.141-.39 2.589-2.871 2.898-5.515 3.099-2.37.396-8.383-.765-9.703-1.755-.888-.525-2.248-1.788-3.202-2.643-.69-.619-1.464-1.99-1.998-2.974-.648-1.209-.981-2.1-1.146-2.886-.201-.936-.612-2.725-.456-4.51.108-1.203.429-1.719.747-3.481.639-1.998 1.434-3.519 2.715-5.253 1.665-1.69 3.781-3.703 5.845-4.639 1.821-.963 5.014-1.314 7.897-1.146 2.344.222 5.11.51 6.943 1.122 3.136 1.119 4.03 1.341 6.604 2.967 2.173 1.345 4.36 3.82 5.581 5.869 2.599 5.314 4.087 11.225 3.007 19.182-.09 1.344-.507 2.659-1.347 4.441-.775 1.641-2.128 3.639-4.171 5.143-.819.759-2.112 1.695-3.166 2.241-1.494.906-2.499 1.377-4.056 2.16-1.371.645-2.968 1.381-5.05 1.96-2.256.891-3.988.927-6.826 1.35-2.79.702-10.433.204-14.987-1.806-3.106-1.309-6.589-3.61-9.242-6.415-1.47-1.546-2.913-4.342-3.336-4.915-2.107-4.054-2.518-7.861-2.857-8.665-.459-1.087-.687-3.526-.996-5.194-.348-1.873-.132-9.716 1.755-14.751 1.069-2.004 1.693-3.792 2.41-4.728 1.296-1.846 1.923-2.995 3.024-4.3 1.659-2.013 2.869-3.658 4.486-4.816 4.12-3.351 7.561-5.118 12.218-7.33 5.785-2.358 7.525-1.869 13.001-1.782 2.463.021 6.049.795 7.813 1.116 3.274.435 5.149 1.224 7.36 1.842 2.368.66 3.733 1.717 5.68 2.89 1.596 1.029 3.478 2.445 4.72 3.594 3.18 2.332 4.714 4.783 6.664 7.793.354.504 2.667 5.436 3.036 6.808.171.69.693 2.661 1.029 3.816.433 1.83.643 3.451 1.129 5.518.429 2.127 1.164 6.142 1.482 9.899.537 3.222-.324 9.796-.828 11.812-1.122 3.763-3.097 8.357-6.985 12.782-1.651 1.96-3.406 3.475-5.437 5.125-1.548 1.293-2.881 2.05-5.281 3.478-3.256 1.944-5.734 3.186-10.298 4.972-1.86.597-4.203 1.38-6.727 1.902-4.887.447-9.913.879-15.395.228-5.485-.654-10.979-2.2-14.225-3.193-1.792-.672-5.26-2.127-6.712-2.913-.948-.477-4.123-2.65-4.66-3.172-2.175-1.344-7.042-5.92-10.184-10.186-.687-1.323-3.162-5.275-3.702-7.009-1.425-2.929-2.422-6.475-3.004-7.991-.618-3.537-1.662-5.811-2.067-9.358.045-.834-.168-2.799-.36-3.889.276-2.427-.093-4.713.39-7.36.423-2.229.981-3.162 1.116-5.179.132-.864 1.239-3.456 1.539-4.611.898-1.903 1.12-3.469 2.29-5.596 1.683-3.31 3.447-7.12 6.151-10.451.774-1.032 2.967-3.507 3.711-4.362 1.768-1.768 2.803-2.047 4.807-3.817.204-.129 1.53-1.638 2.917-2.157 2.295-1.774 4.278-2.422 6.463-4.036 4.38-2.181 5.973-2.919 10.321-4.729 2.515-.897 6.013-1.389 7.273-1.878 2.401-.15 4.837-.915 7.36-.765 2.833-.024 5.689.177 8.537.435 1.92.114 4.425.207 7.822.945z"/></g></svg>

<?xml version="1.0" encoding="utf-8"?>
<svg version="1.1" xmlns="http://www.w3.org/2000/svg">
  <g>
    <path d="M 133.461 21.019 C 133.461 18.403 132.963 15.012 131.804 13.587 C 139.384 13.587 155.754 13.635 162.772 13.635 C 178.921 13.635 203.282 22.597 203.282 52.812 C 203.282 75.238 186.083 91.941 162.772 91.941 C 157.659 91.941 138.138 91.881 131.21 91.881 C 132.63 89.259 133.461 85.703 133.461 82.895 L 133.461 21.019 L 133.461 21.019 Z M 145.072 84.263 C 152.526 85.232 159.406 85.529 165.629 84.641 C 171.654 83.78 191.889 79.42 191.763 52.554 C 191.646 27.089 175.92 21.268 163.801 20.557 C 157.479 20.182 151.373 20.422 145.072 21.514 L 145.072 84.263 L 145.072 84.263 Z" id="path11" style="fill-opacity: 1; fill: rgb(255, 255, 255);"/>
    <path d="M 209.934 37.645 L 221.536 35.832 C 221.536 38.209 221.536 45.173 221.536 46.049 C 224.51 38.695 233.772 32.784 246.926 37.906 L 243.845 45.983 C 231.801 40.267 221.536 45.281 221.536 58.654 L 221.536 86.249 C 221.536 87.563 221.821 90.213 222.608 91.914 L 210.555 91.914 C 211.773 90.414 212.337 87.563 212.337 86.249 L 212.337 46.445 C 212.334 43.556 211.746 39.088 209.934 37.645 L 209.934 37.645 Z" id="path13" style="fill-opacity: 1; fill: rgb(255, 255, 255);"/>
    <path d="M 576.725 43.181 C 576.725 43.934 576.725 76.033 576.725 78.427 C 576.725 89.493 584.353 92.451 590.005 92.451 C 592.391 92.568 595.778 92.01 598.143 91.485 L 599.595 84.656 C 596.841 85.709 593.639 85.958 591.716 85.958 C 588.175 85.958 585.613 83.606 585.613 79.927 C 585.613 76.627 585.529 44.273 585.613 43.241 L 585.574 43.241 C 586.045 43.241 593.396 43.214 594.137 43.241 C 596.546 43.325 598.398 43.472 599.991 44.114 L 600 37.681 C 600 37.681 585.889 37.663 585.613 37.663 L 585.67 21.166 L 574.979 24.119 C 576.452 25.499 576.932 29.535 576.932 32.196 C 576.932 32.196 576.923 37.123 576.923 37.717 C 576.443 37.717 571.013 37.747 570.115 37.747 L 570.115 43.181 C 571.067 43.178 576.725 43.181 576.725 43.181 L 576.725 43.181 Z" id="path15" style="fill-opacity: 1; fill: rgb(255, 255, 255);"/>
    <path d="M 530.515 80.452 C 535.112 83.735 542.322 86.651 547.612 86.651 C 554.948 86.651 560.205 83.081 560.205 76.363 C 560.205 63.959 531.925 66.014 531.925 50.277 C 531.925 39.634 541.44 35.631 550.507 35.631 C 553.421 35.631 560.076 36.265 564.307 37.9 L 564.27 45.17 C 560.514 41.956 554.777 41.182 550.999 41.182 C 545.001 41.182 540.495 44.159 540.495 49.998 C 540.495 58.567 568.75 58.072 568.75 75.667 C 568.75 87.044 558.894 92.349 548.044 92.349 C 542.757 92.349 537.242 91.413 532.655 90.099 L 530.515 80.452 L 530.515 80.452 Z" id="path17" style="fill-opacity: 1; fill: rgb(255, 255, 255);"/>
    <path d="M 359.81 43.292 C 359.81 42.65 359.834 36.886 359.834 36.148 L 348.087 37.963 C 349.503 39.448 350.589 44.075 350.589 47.381 L 350.589 85.865 C 350.589 87.179 350.028 90.366 348.807 91.866 L 361.613 91.866 C 360.398 90.366 359.834 87.179 359.834 85.865 L 359.834 56.911 C 359.834 46.316 366.387 42.608 372.913 42.608 C 378.818 42.608 384.153 45.161 384.153 56.911 L 384.153 85.868 C 384.153 87.182 383.588 90.369 382.373 91.866 L 394.792 91.866 C 393.574 90.366 393.013 87.179 393.013 85.868 L 393.013 56.911 C 393.013 45.164 400.271 42.608 406.188 42.608 C 412.09 42.608 418.262 46.313 418.262 56.911 L 418.262 85.868 C 418.262 87.182 417.704 90.369 416.48 91.866 L 428.442 91.866 C 427.215 90.366 426.66 87.179 426.66 85.868 L 426.66 51.414 C 426.66 45.539 420.665 36.13 406.674 36.13 C 398.534 36.13 393.832 39.751 390.265 42.869 C 387.228 39.325 382.286 36.004 374.347 36.004 C 366.612 36.001 362.042 40.534 359.81 43.292 L 359.81 43.292 Z" id="path19" style="fill-opacity: 1; fill: rgb(255, 255, 255);"/>
    <path d="M 332.115 61.345 C 330.438 62.924 326.928 64.148 323.306 64.625 C 313.783 65.873 305.534 67.454 305.534 76.729 C 305.534 82.229 311.535 86.561 316.285 86.561 C 328.866 86.561 332.119 77.482 332.119 70.332 L 332.119 61.345 L 332.115 61.345 L 332.115 61.345 Z M 302.393 38.653 C 307.194 36.73 314.944 35.844 319.802 35.844 C 332.211 35.844 340.457 42.046 340.457 56.437 L 340.457 80.314 C 340.457 84.737 340.523 88.926 342.101 91.866 L 332.127 91.866 L 331.767 85.586 C 327.993 90.462 323.477 92.643 315.817 92.643 C 300.704 92.643 297.403 82.316 297.403 77.356 C 297.403 59.644 314.26 59.44 321.581 58.396 C 325.631 57.823 330.84 56.677 331.626 52.881 C 332.917 46.601 328.428 41.89 319.255 41.89 C 312.519 41.89 307.005 43.94 302.396 46.694 L 302.393 38.653 L 302.393 38.653 Z M 516.8 61.345 C 515.123 62.924 511.612 64.148 507.988 64.625 C 498.467 65.873 490.222 67.454 490.222 76.729 C 490.222 82.229 496.217 86.561 500.967 86.561 C 513.545 86.561 516.8 77.482 516.8 70.332 L 516.8 61.345 L 516.8 61.345 Z M 487.078 38.653 C 491.881 36.73 499.634 35.844 504.492 35.844 C 516.893 35.844 525.141 42.046 525.141 56.437 L 525.141 80.314 C 525.141 84.737 524.175 88.836 526.78 91.866 L 516.806 91.866 L 516.443 85.586 C 512.665 90.462 508.159 92.643 500.499 92.643 C 485.391 92.643 482.088 82.316 482.088 77.356 C 482.088 59.644 498.944 59.44 506.262 58.396 C 510.313 57.823 515.528 56.677 516.305 52.881 C 517.598 46.601 513.11 41.89 503.931 41.89 C 497.201 41.89 491.686 43.94 487.074 46.694 L 487.074 38.653 L 487.078 38.653 Z" id="path21" style="fill-opacity: 1; fill: rgb(255, 255, 255);"/>
    <path d="M 476.459 45.974 C 472.717 43.79 466.812 42.058 462.693 42.058 C 448.228 42.058 441.596 50.952 441.596 63.764 C 441.596 76.456 448.077 86.177 462.228 86.177 C 467.073 86.177 473.674 83.999 478.799 80.851 L 476.714 90.189 C 471.499 91.74 467.106 92.478 461.289 92.478 C 441.407 92.478 432.088 78.379 432.088 63.704 C 432.088 47.489 444.588 36.085 461.508 36.085 C 468.901 36.085 474.299 37.897 476.477 38.515 L 476.459 45.974 L 476.459 45.974 Z" id="path23" style="fill-opacity: 1; fill: rgb(255, 255, 255);"/>
    <path d="M 253.899 64.442 C 253.908 63.104 254.088 61.826 254.238 60.586 L 292.707 60.586 C 292.707 47.363 286.091 36.019 270.426 36.019 C 254.163 36.019 244.508 48.737 244.508 64.958 C 244.508 79.624 255.256 92.733 273.666 92.733 C 279.484 92.733 284.351 91.299 289.605 89.46 L 291.453 80.08 C 286.961 83.78 279.7 85.97 273.144 85.97 C 261.365 85.97 253.848 77.44 253.899 64.442 L 253.899 64.442 Z M 255.457 54.72 C 256.705 48.287 262.658 41.734 269.784 41.734 C 280.67 41.734 283.82 50.229 283.82 54.72 C 283.817 54.72 255.457 54.741 255.457 54.72 L 255.457 54.72 Z" id="path25" style="fill-opacity: 1; fill: rgb(255, 255, 255);"/>
    <path d="M 70.697 1.399 C 75.012 2.047 79.419 3.553 81.718 4.256 C 86.347 5.672 93.864 10.07 96.519 12.18 C 97.776 13.179 100.417 15.792 101.44 17.107 C 102.436 18.388 104.338 21.163 105.55 22.873 C 107.486 25.697 109.76 29.901 111.689 33.768 C 113.844 38.092 113.994 39.343 114.645 42.956 L 116.07 49.326 C 116.205 50.427 116.316 54.468 113.943 55.032 C 111.575 55.6 109.382 54.507 108.347 52.908 C 106.919 50.697 107.117 47.555 105.496 43.961 C 104.236 41.053 103.687 36.832 101.671 33.795 L 100.093 31.122 C 97.296 26.819 94.383 23.405 92.648 21.175 C 91.115 19.303 88.256 16.762 85.549 14.952 C 83.044 13.431 78.996 11.7 76.074 10.809 C 75.144 10.506 71.159 9.332 68.687 9.002 C 65.323 8.627 63.115 8.096 59.922 7.871 C 55.98 7.592 54.092 7.241 48.977 7.841 C 47.038 8.366 43.972 8.573 41.208 9.629 C 38.979 10.539 35.88 12.009 32.84 13.794 C 29.567 15.588 24.604 19.255 21.309 22.387 C 17.991 25.931 16.332 27.836 14.045 32.328 C 13.031 34.551 11.072 37.993 10.28 40.423 C 9.74 42.887 8.71 47.486 8.881 49.719 C 8.962 53.718 8.611 54.546 8.911 57.817 C 8.923 60.76 9.89 62.801 10.292 65.21 C 10.634 66.875 12.233 72.63 13.22 73.971 C 17.706 83.642 23.734 87.831 30.449 90.855 C 32.342 91.821 38.265 93.405 39.975 93.858 C 42.901 94.384 46.744 94.738 50.444 94.81 C 54.338 94.885 59.706 94.36 62.959 93.156 C 66.484 91.86 70.562 90.018 70.517 90.072 C 72.149 89.169 74.649 87.696 75.423 87.05 C 76.926 86.087 77.832 85.715 78.72 84.788 C 80.007 83.666 80.782 83.018 81.757 81.626 C 82.297 80.842 83.161 79.642 83.995 78.58 C 84.895 77.101 85.414 75.544 86.293 73.62 C 87.347 70.77 87.182 70.908 87.383 67.883 C 87.575 67.007 87.362 64.061 87.206 63.56 C 86.731 60.841 86.896 58.444 86.275 55.804 C 85.438 52.233 84.736 49.56 83.665 46.133 C 82.654 42.274 79.692 38.701 77.469 36.148 C 76.092 34.563 71.816 30.828 65.887 28.493 C 64.216 27.932 61.486 27.296 59.751 26.978 C 56.043 26.591 55.44 26.84 51.893 27.098 C 50.672 27.311 47.839 27.89 46.795 28.256 C 43.75 29.327 42.628 30.009 39.513 31.914 C 38.064 32.757 36.969 33.402 35.487 34.791 C 34.304 35.886 33.455 37.747 32.501 38.839 C 31.187 40.624 29.726 43.007 28.744 45.578 C 27.682 48.134 27.34 51.732 27.502 54.048 C 27.502 55.81 27.982 59.044 28.171 59.749 C 28.363 60.457 28.84 62.651 28.942 63.092 C 29.048 63.533 30.188 65.855 30.347 66.191 C 30.992 67.562 32.222 69.528 34.295 71.538 C 35.829 73.209 38.787 74.851 41.004 75.487 C 42.991 76.579 46.342 76.762 48.199 76.765 C 49.109 76.711 51.44 76.567 52.658 76.276 C 55.125 75.685 55.578 75.67 58.122 74.565 C 60.402 73.506 61.951 73.125 63.538 71.952 C 63.538 71.952 65.719 70.245 66.712 68.994 C 67.234 68.337 68.132 65.189 67.973 63.242 C 67.898 60.574 68.288 59.062 67.741 56.869 C 67.195 54.675 66.268 52.134 65.26 50.568 C 64.24 48.981 62.05 47.435 59.556 46.202 C 58.155 45.512 54.845 44.873 53.441 44.708 C 50.774 44.39 48.545 45.602 47.188 46.985 C 46.012 48.329 43.69 51.117 44.614 54.003 C 45.451 56.611 46.465 59.392 50.378 59.185 C 53.066 59.743 56.172 58.936 57.207 59.41 C 58.74 60.28 59.331 62.207 58.773 63.551 C 58.383 66.14 55.902 66.449 53.258 66.65 C 50.888 67.046 44.875 65.885 43.555 64.895 C 42.667 64.37 41.307 63.107 40.353 62.252 C 39.663 61.633 38.889 60.262 38.355 59.278 C 37.707 58.069 37.374 57.178 37.209 56.392 C 37.008 55.456 36.597 53.667 36.753 51.882 C 36.861 50.679 37.182 50.163 37.5 48.401 C 38.139 46.403 38.934 44.882 40.215 43.148 C 41.88 41.458 43.996 39.445 46.06 38.509 C 47.881 37.546 51.074 37.195 53.957 37.363 C 56.301 37.585 59.067 37.873 60.9 38.485 C 64.036 39.604 64.93 39.826 67.504 41.452 C 69.677 42.797 71.864 45.272 73.085 47.321 C 75.684 52.635 77.172 58.546 76.092 66.503 C 76.002 67.847 75.585 69.162 74.745 70.944 C 73.97 72.585 72.617 74.583 70.574 76.087 C 69.755 76.846 68.462 77.782 67.408 78.328 C 65.914 79.234 64.909 79.705 63.352 80.488 C 61.981 81.133 60.384 81.869 58.302 82.448 C 56.046 83.339 54.314 83.375 51.476 83.798 C 48.686 84.5 41.043 84.002 36.489 81.992 C 33.383 80.683 29.9 78.382 27.247 75.577 C 25.777 74.031 24.334 71.235 23.911 70.662 C 21.804 66.608 21.393 62.801 21.054 61.997 C 20.595 60.91 20.367 58.471 20.058 56.803 C 19.71 54.93 19.926 47.087 21.813 42.052 C 22.882 40.048 23.506 38.26 24.223 37.324 C 25.519 35.478 26.146 34.329 27.247 33.024 C 28.906 31.011 30.116 29.366 31.733 28.208 C 35.853 24.857 39.294 23.09 43.951 20.878 C 49.736 18.52 51.476 19.009 56.952 19.096 C 59.415 19.117 63.001 19.891 64.765 20.212 C 68.039 20.647 69.914 21.436 72.125 22.054 C 74.493 22.714 75.858 23.771 77.805 24.944 C 79.401 25.973 81.283 27.389 82.525 28.538 C 85.705 30.87 87.239 33.321 89.189 36.331 C 89.543 36.835 91.856 41.767 92.225 43.139 C 92.396 43.829 92.918 45.8 93.254 46.955 C 93.687 48.785 93.897 50.406 94.383 52.473 C 94.812 54.6 95.547 58.615 95.865 62.372 C 96.402 65.594 95.541 72.168 95.037 74.184 C 93.915 77.947 91.94 82.541 88.052 86.966 C 86.401 88.926 84.646 90.441 82.615 92.091 C 81.067 93.384 79.734 94.141 77.334 95.569 C 74.078 97.513 71.6 98.755 67.036 100.541 C 65.176 101.138 62.833 101.921 60.309 102.443 C 55.422 102.89 50.396 103.322 44.914 102.671 C 39.429 102.017 33.935 100.471 30.689 99.478 C 28.897 98.806 25.429 97.351 23.977 96.565 C 23.029 96.088 19.854 93.915 19.317 93.393 C 17.142 92.049 12.275 87.473 9.133 83.207 C 8.446 81.884 5.971 77.932 5.431 76.198 C 4.006 73.269 3.009 69.723 2.427 68.207 C 1.809 64.67 0.765 62.396 0.36 58.849 C 0.405 58.015 0.192 56.05 0 54.96 C 0.276 52.533 -0.093 50.247 0.39 47.6 C 0.813 45.371 1.371 44.438 1.506 42.421 C 1.638 41.557 2.745 38.965 3.045 37.81 C 3.943 35.907 4.165 34.341 5.335 32.214 C 7.018 28.904 8.782 25.094 11.486 21.763 C 12.26 20.731 14.453 18.256 15.197 17.401 C 16.965 15.633 18 15.354 20.004 13.584 C 20.208 13.455 21.534 11.946 22.921 11.427 C 25.216 9.653 27.199 9.005 29.384 7.391 C 33.764 5.21 35.357 4.472 39.705 2.662 C 42.22 1.765 45.718 1.273 46.978 0.784 C 49.379 0.634 51.815 -0.131 54.338 0.019 C 57.171 -0.005 60.027 0.196 62.875 0.454 C 64.795 0.568 67.3 0.661 70.697 1.399 L 70.697 1.399 Z" id="path27" style="fill-opacity: 1; fill: rgb(255, 255, 255);"/>
  </g>
</svg>
